images/burguer.svg

<svg height="480pt" viewBox="0 -24 480 480" width="480pt" xmlns="http://www.w3.org/2000/svg"><path d="m472 96h-106.664062l-37.953126-91.078125c-1.242187-2.980469-4.152343-4.921875-7.382812-4.921875h-136c-4.417969 0-8 3.582031-8 8v32c0 4.417969 3.582031 8 8 8h106.457031l18 48h-60.457031c-4.417969 0-8 3.582031-8 8v48c0 4.417969 3.582031 8 8 8h8.457031l15.542969 264.472656c.25 4.230469 3.757812 7.535156 8 7.527344h160c4.242188.007812 7.75-3.296875 8-7.527344l15.542969-264.472656h8.457031c4.417969 0 8-3.582031 8-8v-48c0-4.417969-3.582031-8-8-8zm-168.503906-58.808594c-1.171875-3.125-4.160156-5.195312-7.496094-5.191406h-104v-16h122.664062l33.335938 80h-22.457031zm133.664062 298.808594h-34.96875c13.859375-12.101562 21.808594-29.601562 21.808594-48s-7.949219-35.898438-21.808594-48h40.617188zm-29.160156-48c0 26.507812-21.492188 48-48 48s-48-21.492188-48-48 21.492188-48 48-48c26.5.027344 47.972656 21.5 48 48zm-112 0c.011719 18.394531 7.960938 35.890625 21.808594 48h-34.96875l-5.648438-96h40.617188c-13.847656 12.109375-21.796875 29.605469-21.808594 48zm-8.457031 128-3.757813-64h152.429688l-3.757813 64zm156.210937-192h-167.507812l-3.757813-64h175.023438zm20.246094-80h-208v-32h208zm0 0"/><path d="m408 384h-24c-4.417969 0-8 3.582031-8 8s3.582031 8 8 8h24c4.417969 0 8-3.582031 8-8s-3.582031-8-8-8zm0 0"/><path d="m352 384h-8c-4.417969 0-8 3.582031-8 8s3.582031 8 8 8h8c4.417969 0 8-3.582031 8-8s-3.582031-8-8-8zm0 0"/><path d="m24 432h208c13.253906 0 24-10.746094 24-24v-32c-.015625-8.21875-4.242188-15.855469-11.199219-20.230469 4.273438-7.265625 4.273438-16.273437 0-23.539062 6.957031-4.375 11.183594-12.011719 11.199219-20.230469 0-43.257812-29.921875-88-80-88h-88c-57.777344 0-88 44.273438-88 88 .015625 8.21875 4.242188 15.855469 11.199219 20.230469-4.273438 7.265625-4.273438 16.273437 0 23.539062-6.957031 4.375-11.183594 12.011719-11.199219 20.230469v32c0 13.253906 10.746094 24 24 24zm216-24c0 4.417969-3.582031 8-8 8h-208c-4.417969 0-8-3.582031-8-8v-32c0-4.417969 3.582031-8 8-8h62.953125l118.984375 31.726562c3.667969.984376 7.523438-.75 9.222656-4.152343l13.785156-27.574219h3.054688c4.417969 0 8 3.582031 8 8zm-216-64c0-4.417969 3.582031-8 8-8h192c4.417969 0 8 3.582031 8 8s-3.582031 8-8 8h-192c-4.417969 0-8-3.582031-8-8zm187.054688 24-7.292969 14.59375-54.714844-14.59375zm-123.054688-128h88c44.144531 0 64 42.105469 64 72 0 4.417969-3.582031 8-8 8h-208c-4.417969 0-8-3.582031-8-8 0-28.945312 19.199219-72 72-72zm0 0"/><path d="m88 272h8c4.417969 0 8-3.582031 8-8s-3.582031-8-8-8h-8c-4.417969 0-8 3.582031-8 8s3.582031 8 8 8zm0 0"/><path d="m56 304h8c4.417969 0 8-3.582031 8-8s-3.582031-8-8-8h-8c-4.417969 0-8 3.582031-8 8s3.582031 8 8 8zm0 0"/><path d="m96 296c0 4.417969 3.582031 8 8 8h8c4.417969 0 8-3.582031 8-8s-3.582031-8-8-8h-8c-4.417969 0-8 3.582031-8 8zm0 0"/><path d="m152 304h8c4.417969 0 8-3.582031 8-8s-3.582031-8-8-8h-8c-4.417969 0-8 3.582031-8 8s3.582031 8 8 8zm0 0"/><path d="m200 304h8c4.417969 0 8-3.582031 8-8s-3.582031-8-8-8h-8c-4.417969 0-8 3.582031-8 8s3.582031 8 8 8zm0 0"/><path d="m128 272h8c4.417969 0 8-3.582031 8-8s-3.582031-8-8-8h-8c-4.417969 0-8 3.582031-8 8s3.582031 8 8 8zm0 0"/><path d="m168 272h8c4.417969 0 8-3.582031 8-8s-3.582031-8-8-8h-8c-4.417969 0-8 3.582031-8 8s3.582031 8 8 8zm0 0"/></svg>

<svg height="640" viewBox="0 -24 480 480" width="640" xmlns="http://www.w3.org/2000/svg"><path d="M472 96H365.336L327.383 4.922A7.997 7.997 0 00320 0H184a8 8 0 00-8 8v32a8 8 0 008 8h106.457l18 48H248a8 8 0 00-8 8v48a8 8 0 008 8h8.457L272 424.473a8 8 0 008 7.527h160a8 8 0 008-7.527L463.543 160H472a8 8 0 008-8v-48a8 8 0 00-8-8zM303.496 37.191A7.998 7.998 0 00296 32H192V16h122.664L348 96h-22.457zM437.16 336h-34.969C416.051 323.898 424 306.398 424 288s-7.95-35.898-21.809-48h40.618zM408 288c0 26.508-21.492 48-48 48s-48-21.492-48-48 21.492-48 48-48c26.5.027 47.973 21.5 48 48zm-112 0a63.82 63.82 0 0021.809 48h-34.97l-5.648-96h40.618A63.82 63.82 0 00296 288zm-8.457 128l-3.758-64h152.43l-3.758 64zm156.21-192H276.247l-3.758-64h175.024zM464 144H256v-32h208zm0 0"/><path d="M408 384h-24a8 8 0 000 16h24a8 8 0 000-16zm0 0M352 384h-8a8 8 0 000 16h8a8 8 0 000-16zm0 0M24 432h208c13.254 0 24-10.746 24-24v-32a23.95 23.95 0 00-11.2-20.23 23.212 23.212 0 000-23.54A23.95 23.95 0 00256 312c0-43.258-29.922-88-80-88H88c-57.777 0-88 44.273-88 88a23.95 23.95 0 0011.2 20.23 23.212 23.212 0 000 23.54A23.95 23.95 0 000 376v32c0 13.254 10.746 24 24 24zm216-24a8 8 0 01-8 8H24a8 8 0 01-8-8v-32a8 8 0 018-8h62.953l118.984 31.727a7.993 7.993 0 009.223-4.153L228.945 368H232a8 8 0 018 8zM24 344a8 8 0 018-8h192a8 8 0 010 16H32a8 8 0 01-8-8zm187.055 24l-7.293 14.594L149.047 368zM88 240h88c44.145 0 64 42.105 64 72a8 8 0 01-8 8H24a8 8 0 01-8-8c0-28.945 19.2-72 72-72zm0 0"/><path d="M88 272h8a8 8 0 000-16h-8a8 8 0 000 16zm0 0M56 304h8a8 8 0 000-16h-8a8 8 0 000 16zm0 0M96 296a8 8 0 008 8h8a8 8 0 000-16h-8a8 8 0 00-8 8zm0 0M152 304h8a8 8 0 000-16h-8a8 8 0 000 16zm0 0M200 304h8a8 8 0 000-16h-8a8 8 0 000 16zm0 0M128 272h8a8 8 0 000-16h-8a8 8 0 000 16zm0 0M168 272h8a8 8 0 000-16h-8a8 8 0 000 16zm0 0"/></svg>
